public/img/whatsapp.svg

<?xml version="1.0" encoding="UTF-8"?>
<svg xmlns="http://www.w3.org/2000/svg" xmlns:xlink="http://www.w3.org/1999/xlink" viewBox="0 0 48 48" version="1.1" width="48px" height="48px">
<g id="surface1">
<path style=" fill:#FFFFFF;" d="M 4.867188 43.304688 L 7.5625 33.46875 C 5.898438 30.589844 5.027344 27.324219 5.027344 23.980469 C 5.03125 13.515625 13.546875 5 24.015625 5 C 29.09375 5.003906 33.859375 6.980469 37.445313 10.566406 C 41.027344 14.152344 43.003906 18.921875 43 23.992188 C 42.996094 34.460938 34.476563 42.972656 24.015625 42.972656 C 24.011719 42.972656 24.015625 42.972656 24.015625 42.972656 L 24.007813 42.972656 C 20.828125 42.972656 17.707031 42.175781 14.933594 40.664063 Z "/>
<path style=" fill:#FFFFFF;" d="M 4.867188 43.804688 C 4.734375 43.804688 4.609375 43.75 4.511719 43.65625 C 4.386719 43.527344 4.339844 43.34375 4.386719 43.171875 L 7.023438 33.535156 C 5.390625 30.628906 4.527344 27.328125 4.527344 23.980469 C 4.53125 13.238281 13.273438 4.5 24.015625 4.5 C 29.222656 4.503906 34.117188 6.53125 37.796875 10.214844 C 41.476563 13.894531 43.503906 18.789063 43.5 23.992188 C 43.496094 34.734375 34.753906 43.472656 24.015625 43.472656 C 20.824219 43.472656 17.671875 42.6875 14.871094 41.195313 L 4.996094 43.785156 C 4.953125 43.796875 4.910156 43.804688 4.867188 43.804688 Z "/>
<path style=" fill:#CFD8DC;" d="M 24.015625 5 C 29.09375 5.003906 33.859375 6.980469 37.445313 10.566406 C 41.027344 14.152344 43.003906 18.921875 43 23.992188 C 42.996094 34.460938 34.476563 42.972656 24.015625 42.972656 L 24.007813 42.972656 C 20.828125 42.972656 17.707031 42.175781 14.933594 40.664063 L 4.867188 43.304688 L 7.5625 33.46875 C 5.898438 30.589844 5.027344 27.324219 5.027344 23.980469 C 5.03125 13.515625 13.546875 5 24.015625 5 M 24.015625 42.972656 L 24.015625 42.972656 M 24.015625 42.972656 L 24.015625 42.972656 M 24.015625 4 C 12.996094 4 4.03125 12.960938 4.027344 23.980469 C 4.027344 27.347656 4.875 30.664063 6.488281 33.601563 L 3.902344 43.039063 C 3.808594 43.386719 3.90625 43.753906 4.15625 44.007813 C 4.347656 44.199219 4.605469 44.304688 4.867188 44.304688 C 4.953125 44.304688 5.039063 44.292969 5.121094 44.269531 L 14.808594 41.730469 C 17.636719 43.199219 20.808594 43.972656 24.007813 43.976563 C 35.03125 43.976563 43.996094 35.011719 44 23.996094 C 44.003906 18.65625 41.925781 13.636719 38.152344 9.859375 C 34.378906 6.082031 29.355469 4.003906 24.015625 4 Z "/>
<path style=" fill:#40C351;" d="M 35.175781 12.832031 C 32.195313 9.851563 28.234375 8.207031 24.019531 8.207031 C 15.316406 8.207031 8.234375 15.28125 8.230469 23.980469 C 8.230469 26.960938 9.066406 29.863281 10.644531 32.375 L 11.019531 32.972656 L 9.425781 38.792969 L 15.398438 37.226563 L 15.976563 37.570313 C 18.398438 39.007813 21.175781 39.769531 24.007813 39.769531 L 24.015625 39.769531 C 32.710938 39.769531 39.789063 32.691406 39.792969 23.992188 C 39.796875 19.777344 38.15625 15.8125 35.175781 12.832031 Z "/>
<path style=" fill-rule:evenodd;fill:#FFFFFF;" d="M 19.269531 16.046875 C 18.914063 15.253906 18.539063 15.238281 18.199219 15.226563 C 17.921875 15.214844 17.605469 15.214844 17.289063 15.214844 C 16.976563 15.214844 16.460938 15.332031 16.027344 15.808594 C 15.589844 16.28125 14.363281 17.429688 14.363281 19.765625 C 14.363281 22.097656 16.066406 24.355469 16.300781 24.671875 C 16.539063 24.984375 19.585938 29.929688 24.40625 31.832031 C 28.414063 33.410156 29.230469 33.097656 30.097656 33.019531 C 30.96875 32.9375 32.90625 31.871094 33.300781 30.761719 C 33.695313 29.65625 33.695313 28.707031 33.578125 28.507813 C 33.460938 28.308594 33.144531 28.191406 32.667969 27.953125 C 32.195313 27.714844 29.863281 26.570313 29.425781 26.410156 C 28.992188 26.253906 28.675781 26.175781 28.359375 26.648438 C 28.042969 27.121094 27.132813 28.191406 26.855469 28.507813 C 26.578125 28.824219 26.304688 28.863281 25.828125 28.628906 C 25.355469 28.390625 23.828125 27.890625 22.015625 26.273438 C 20.605469 25.015625 19.652344 23.464844 19.375 22.988281 C 19.097656 22.515625 19.34375 22.257813 19.582031 22.019531 C 19.796875 21.808594 20.058594 21.464844 20.296875 21.1875 C 20.53125 20.910156 20.609375 20.714844 20.769531 20.398438 C 20.925781 20.082031 20.847656 19.804688 20.730469 19.566406 C 20.613281 19.328125 19.691406 16.984375 19.269531 16.046875 Z "/>
</g>
</svg>

<?xml version="1.0" encoding="UTF-8"?>
<svg version="1.1" viewBox="0 0 48 48" xmlns="http://www.w3.org/2000/svg">
<path d="m4.8672 43.305l2.6953-9.8359c-1.6641-2.8789-2.5352-6.1445-2.5352-9.4883 0.003906-10.465 8.5195-18.98 18.988-18.98 5.0781 0.003906 9.8438 1.9805 13.43 5.5664 3.582 3.5859 5.5586 8.3555 5.5547 13.426-0.003906 10.469-8.5234 18.98-18.984 18.98-0.003906 0 0 0 0 0h-0.007812c-3.1797 0-6.3008-0.79688-9.0742-2.3086z" fill="#fff"/>
<path d="m4.8672 43.805c-0.13281 0-0.25781-0.054688-0.35547-0.14844-0.125-0.12891-0.17188-0.3125-0.125-0.48438l2.6367-9.6367c-1.6328-2.9062-2.4961-6.207-2.4961-9.5547 0.003906-10.742 8.7461-19.48 19.488-19.48 5.207 0.003906 10.102 2.0312 13.781 5.7148 3.6797 3.6797 5.707 8.5742 5.7031 13.777-0.003906 10.742-8.7461 19.48-19.484 19.48-3.1914 0-6.3438-0.78516-9.1445-2.2773l-9.875 2.5898c-0.042969 0.011719-0.085938 0.019532-0.12891 0.019532z" fill="#fff"/>
<path d="m24.016 5c5.0781 0.003906 9.8438 1.9805 13.43 5.5664 3.582 3.5859 5.5586 8.3555 5.5547 13.426-0.003906 10.469-8.5234 18.98-18.984 18.98h-0.007812c-3.1797 0-6.3008-0.79688-9.0742-2.3086l-10.066 2.6406 2.6953-9.8359c-1.6641-2.8789-2.5352-6.1445-2.5352-9.4883 0.003906-10.465 8.5195-18.98 18.988-18.98m0 37.973m0-38.973c-11.02 0-19.984 8.9609-19.988 19.98 0 3.3672 0.84766 6.6836 2.4609 9.6211l-2.5859 9.4375c-0.09375 0.34766 0.003906 0.71484 0.25391 0.96875 0.19141 0.19141 0.44922 0.29688 0.71094 0.29688 0.085937 0 0.17188-0.011719 0.25391-0.035157l9.6875-2.5391c2.8281 1.4688 6 2.2422 9.1992 2.2461 11.023 0 19.988-8.9648 19.992-19.98 0.003906-5.3398-2.0742-10.359-5.8477-14.137-3.7734-3.7773-8.7969-5.8555-14.137-5.8594z" fill="#CFD8DC"/>
<path d="m35.176 12.832c-2.9805-2.9805-6.9414-4.625-11.156-4.625-8.7031 0-15.785 7.0742-15.789 15.773 0 2.9805 0.83594 5.8828 2.4141 8.3945l0.375 0.59766-1.5938 5.8203 5.9727-1.5664 0.57812 0.34375c2.4219 1.4375 5.1992 2.1992 8.0312 2.1992h0.007812c8.6953 0 15.773-7.0781 15.777-15.777 0.003906-4.2148-1.6367-8.1797-4.6172-11.16z" fill="#40C351"/>
<path d="m19.27 16.047c-0.35547-0.79297-0.73047-0.80859-1.0703-0.82031-0.27734-0.011719-0.59375-0.011719-0.91016-0.011719-0.3125 0-0.82812 0.11719-1.2617 0.59375-0.4375 0.47266-1.6641 1.6211-1.6641 3.957 0 2.332 1.7031 4.5898 1.9375 4.9062 0.23828 0.3125 3.2852 5.2578 8.1055 7.1602 4.0078 1.5781 4.8242 1.2656 5.6914 1.1875 0.87109-0.082031 2.8086-1.1484 3.2031-2.2578 0.39453-1.1055 0.39453-2.0547 0.27734-2.2539-0.11719-0.19922-0.43359-0.31641-0.91016-0.55469-0.47266-0.23828-2.8047-1.3828-3.2422-1.543-0.43359-0.15625-0.75-0.23438-1.0664 0.23828-0.31641 0.47266-1.2266 1.543-1.5039 1.8594-0.27734 0.31641-0.55078 0.35547-1.0273 0.12109-0.47266-0.23828-2-0.73828-3.8125-2.3555-1.4102-1.2578-2.3633-2.8086-2.6406-3.2852-0.27734-0.47266-0.03125-0.73047 0.20703-0.96875 0.21484-0.21094 0.47656-0.55469 0.71484-0.83203 0.23438-0.27734 0.3125-0.47266 0.47266-0.78906 0.15625-0.31641 0.078125-0.59375-0.039062-0.83203-0.11719-0.23828-1.0391-2.582-1.4609-3.5195z" fill="#fff" fill-rule="evenodd"/>
</svg>
